res/skins/LateNight/style/spinny_indicator.svg

<?xml version="1.0" encoding="UTF-8" standalone="no"?>
<!-- Created with Inkscape (http://www.inkscape.org/) -->

<svg
   xmlns:dc="http://purl.org/dc/elements/1.1/"
   xmlns:cc="http://creativecommons.org/ns#"
   xmlns:rdf="http://www.w3.org/1999/02/22-rdf-syntax-ns#"
   xmlns:svg="http://www.w3.org/2000/svg"
   xmlns="http://www.w3.org/2000/svg"
   xmlns:xlink="http://www.w3.org/1999/xlink"
   xmlns:sodipodi="http://sodipodi.sourceforge.net/DTD/sodipodi-0.dtd"
   xmlns:inkscape="http://www.inkscape.org/namespaces/inkscape"
   version="1.1"
   width="100"
   height="100"
   id="svg2"
   sodipodi:docname="spinny_indicator.svg"
   inkscape:version="0.92.3 (unknown)">
  <sodipodi:namedview
     pagecolor="#ffffff"
     bordercolor="#666666"
     borderopacity="1"
     objecttolerance="10"
     gridtolerance="10"
     guidetolerance="10"
     inkscape:pageopacity="0"
     inkscape:pageshadow="2"
     inkscape:window-width="1366"
     inkscape:window-height="740"
     id="namedview22"
     showgrid="true"
     inkscape:snap-nodes="false"
     inkscape:snap-bbox="true"
     inkscape:bbox-nodes="true"
     inkscape:zoom="13.350176"
     inkscape:cx="50.954038"
     inkscape:cy="80.521128"
     inkscape:window-x="0"
     inkscape:window-y="0"
     inkscape:window-maximized="1"
     inkscape:current-layer="svg2">
    <inkscape:grid
       type="xygrid"
       id="grid4532" />
  </sodipodi:namedview>
  <defs
     id="defs4">
    <linearGradient
       id="linearGradient3861">
      <stop
         id="stop3863"
         style="stop-color:#09b2ae;stop-opacity:1"
         offset="0" />
      <stop
         id="stop3865"
         style="stop-color:#09b2ae;stop-opacity:0"
         offset="1" />
    </linearGradient>
    <linearGradient
       id="linearGradient3851">
      <stop
         id="stop3853"
         style="stop-color:#09b2ae;stop-opacity:1"
         offset="0" />
      <stop
         id="stop3855"
         style="stop-color:#09b2ae;stop-opacity:0"
         offset="1" />
    </linearGradient>
    <linearGradient
       x1="48.010761"
       y1="0.07037171"
       x2="47.827461"
       y2="24.407314"
       id="linearGradient3857"
       xlink:href="#linearGradient3851"
       gradientUnits="userSpaceOnUse" />
    <radialGradient
       cx="50.002552"
       cy="45.492374"
       r="20.076782"
       fx="50.002552"
       fy="45.492374"
       id="radialGradient3867"
       xlink:href="#linearGradient3861"
       gradientUnits="userSpaceOnUse" />
  </defs>
  <metadata
     id="metadata7">
    <rdf:RDF>
      <cc:Work
         rdf:about="">
        <dc:format>image/svg+xml</dc:format>
        <dc:type
           rdf:resource="http://purl.org/dc/dcmitype/StillImage" />
        <dc:title></dc:title>
      </cc:Work>
    </rdf:RDF>
  </metadata>
  <g
     transform="translate(0,-952.3622)"
     id="layer1"
     style="display:none">
    <image
       x="0"
       y="956.36218"
       width="96"
       height="96"
       id="image3047" />
  </g>
  <g
     transform="translate(0,4)"
     id="layer2"
     style="display:none">
    <path
       d="m 70.079334,45.492374 a 20.076782,20.076782 0 1 1 -40.153564,0 20.076782,20.076782 0 1 1 40.153564,0 z"
       transform="translate(-2.002552,2.5076256)"
       id="path3859"
       style="opacity:0.94000005;fill:url(#radialGradient3867);fill-opacity:1;fill-rule:nonzero;stroke:none"
       inkscape:connector-curvature="0" />
    <path
       d="m 53.033009,48.017754 a 4.2931485,4.2931485 0 1 1 -8.586297,0 4.2931485,4.2931485 0 1 1 8.586297,0 z"
       transform="matrix(0.93171713,0,0,0.93171713,2.588237,3.2610364)"
       id="path3830"
       style="opacity:0.94000005;fill:#000000;fill-opacity:1;fill-rule:nonzero;stroke:none"
       inkscape:connector-curvature="0" />
    <path
       d="M 0,0 V 96 H 96 V 0 Z M 48,2 C 73.405099,2 94,22.594902 94,48 94,73.405099 73.405099,94 48,94 22.594902,94 2,73.405099 2,48 2,22.594902 22.594902,2 48,2 Z"
       id="rect3842"
       style="opacity:0.94000005;fill:#000000;fill-opacity:1;fill-rule:nonzero;stroke:none"
       inkscape:connector-curvature="0" />
    <path
       d="m 95.711956,47.82835 a 47.792843,47.666573 0 1 1 -95.58568571,0 47.792843,47.666573 0 1 1 95.58568571,0 z"
       transform="matrix(0.96248721,0,0,0.96503687,1.8784665,1.8438788)"
       id="path3849"
       style="opacity:0.94000005;fill:url(#linearGradient3857);fill-opacity:1;fill-rule:nonzero;stroke:none"
       inkscape:connector-curvature="0" />
  </g>
  <path
     style="color:#000000;font-style:normal;font-variant:normal;font-weight:normal;font-stretch:normal;font-size:medium;line-height:normal;font-family:sans-serif;font-variant-ligatures:normal;font-variant-position:normal;font-variant-caps:normal;font-variant-numeric:normal;font-variant-alternates:normal;font-feature-settings:normal;text-indent:0;text-align:start;text-decoration:none;text-decoration-line:none;text-decoration-style:solid;text-decoration-color:#000000;letter-spacing:normal;word-spacing:normal;text-transform:none;writing-mode:lr-tb;direction:ltr;text-orientation:mixed;dominant-baseline:auto;baseline-shift:baseline;text-anchor:start;white-space:normal;shape-padding:0;clip-rule:nonzero;display:inline;overflow:visible;visibility:visible;opacity:1;isolation:auto;mix-blend-mode:normal;color-interpolation:sRGB;color-interpolation-filters:linearRGB;solid-color:#000000;solid-opacity:1;vector-effect:none;fill:#000000;fill-opacity:1;fill-rule:nonzero;stroke:none;stroke-width:0.94011039;stroke-linecap:round;stroke-linejoin:round;stroke-miterlimit:4;stroke-dasharray:none;stroke-dashoffset:0;stroke-opacity:1;marker:none;color-rendering:auto;image-rendering:auto;shape-rendering:auto;text-rendering:auto;enable-background:accumulate"
     d="M 49.470703,0.66992188 C 47.556423,0.66992188 46,2.2263451 46,4.140625 v 34.058594 c 0,1.91428 1.556423,3.470703 3.470703,3.470703 h 1.058594 C 52.443577,41.669922 54,40.113499 54,38.199219 V 4.140625 C 54,2.2263451 52.443577,0.66992188 50.529297,0.66992188 Z"
     id="path5574" />
  <path
     style="color:#000000;font-style:normal;font-variant:normal;font-weight:normal;font-stretch:normal;font-size:medium;line-height:normal;font-family:sans-serif;font-variant-ligatures:normal;font-variant-position:normal;font-variant-caps:normal;font-variant-numeric:normal;font-variant-alternates:normal;font-feature-settings:normal;text-indent:0;text-align:start;text-decoration:none;text-decoration-line:none;text-decoration-style:solid;text-decoration-color:#000000;letter-spacing:normal;word-spacing:normal;text-transform:none;writing-mode:lr-tb;direction:ltr;text-orientation:mixed;dominant-baseline:auto;baseline-shift:baseline;text-anchor:start;white-space:normal;shape-padding:0;clip-rule:nonzero;display:inline;overflow:visible;visibility:visible;opacity:1;isolation:auto;mix-blend-mode:normal;color-interpolation:sRGB;color-interpolation-filters:linearRGB;solid-color:#000000;solid-opacity:1;vector-effect:none;fill:#ffffff;fill-opacity:1;fill-rule:nonzero;stroke:none;stroke-width:0.83873731;stroke-linecap:round;stroke-linejoin:round;stroke-miterlimit:4;stroke-dasharray:none;stroke-dashoffset:0;stroke-opacity:1;marker:none;color-rendering:auto;image-rendering:auto;shape-rendering:auto;text-rendering:auto;enable-background:accumulate"
     d="m 49.567645,2.1094219 h 0.86471 c 1.151526,0 2.067645,1.092859 2.067645,2.4665409 V 37.763881 c 0,1.373682 -0.916119,2.466541 -2.067645,2.466541 h -0.86471 C 48.416119,40.230422 47.5,39.137563 47.5,37.763881 V 4.5759628 c 0,-1.3736819 0.916119,-2.4665409 2.067645,-2.4665409 z"
     id="rect4544"
     inkscape:connector-curvature="0" />
</svg>

<?xml version="1.0" encoding="UTF-8"?>
<!-- Created with Inkscape (http://www.inkscape.org/) -->
<svg id="svg2" width="100" height="100" version="1.1" xmlns="http://www.w3.org/2000/svg" xmlns:cc="http://creativecommons.org/ns#" xmlns:dc="http://purl.org/dc/elements/1.1/" xmlns:rdf="http://www.w3.org/1999/02/22-rdf-syntax-ns#" xmlns:xlink="http://www.w3.org/1999/xlink">
 <defs id="defs4">
  <linearGradient id="linearGradient3857" x1="48.011" x2="47.827" y1=".070372" y2="24.407" gradientUnits="userSpaceOnUse">
   <stop id="stop3853" stop-color="#09b2ae" offset="0"/>
   <stop id="stop3855" stop-color="#09b2ae" stop-opacity="0" offset="1"/>
  </linearGradient>
  <radialGradient id="radialGradient3867" cx="50.003" cy="45.492" r="20.077" gradientUnits="userSpaceOnUse">
   <stop id="stop3863" stop-color="#09b2ae" offset="0"/>
   <stop id="stop3865" stop-color="#09b2ae" stop-opacity="0" offset="1"/>
  </radialGradient>
 </defs>
 <metadata id="metadata7">
  <rdf:RDF>
   <cc:Work rdf:about="">
    <dc:format>image/svg+xml</dc:format>
    <dc:type rdf:resource="http://purl.org/dc/dcmitype/StillImage"/>
    <dc:title/>
   </cc:Work>
  </rdf:RDF>
 </metadata>
 <g id="layer1" transform="translate(0 -952.36)" display="none">
  <image id="image3047" y="956.36" width="96" height="96"/>
 </g>
 <g id="layer2" transform="translate(0,4)" display="none">
  <path id="path3859" transform="translate(-2.0026 2.5076)" d="m70.079 45.492a20.077 20.077 0 1 1-40.154 0 20.077 20.077 0 1 1 40.154 0z" fill="url(#radialGradient3867)" opacity=".94"/>
  <path id="path3830" transform="matrix(.93172 0 0 .93172 2.5882 3.261)" d="m53.033 48.018a4.2931 4.2931 0 1 1-8.5863 0 4.2931 4.2931 0 1 1 8.5863 0z" opacity=".94"/>
  <path id="rect3842" d="m0 0v96h96v-96zm48 2c25.405 0 46 20.595 46 46 0 25.405-20.595 46-46 46-25.405 0-46-20.595-46-46 0-25.405 20.595-46 46-46z" opacity=".94"/>
  <path id="path3849" transform="matrix(.96249 0 0 .96504 1.8785 1.8439)" d="m95.712 47.828a47.793 47.667 0 1 1-95.586 0 47.793 47.667 0 1 1 95.586 0z" fill="url(#linearGradient3857)" opacity=".94"/>
 </g>
 <path id="path5574" d="m49.471 0.66992c-1.9143 0-3.4707 1.5564-3.4707 3.4707v34.059c0 1.9143 1.5564 3.4707 3.4707 3.4707h1.0586c1.9143 0 3.4707-1.5564 3.4707-3.4707v-34.059c0-1.9143-1.5564-3.4707-3.4707-3.4707z" color="#000000" color-rendering="auto" dominant-baseline="auto" image-rendering="auto" shape-rendering="auto" solid-color="#000000" style="font-feature-settings:normal;font-variant-alternates:normal;font-variant-caps:normal;font-variant-ligatures:normal;font-variant-numeric:normal;font-variant-position:normal;isolation:auto;mix-blend-mode:normal;shape-padding:0;text-decoration-color:#000000;text-decoration-line:none;text-decoration-style:solid;text-indent:0;text-orientation:mixed;text-transform:none;white-space:normal"/>
 <path id="rect4544" d="m49.568 2.1094h0.86471c1.1515 0 2.0676 1.0929 2.0676 2.4665v33.188c0 1.3737-0.91612 2.4665-2.0676 2.4665h-0.86471c-1.1515 0-2.0676-1.0929-2.0676-2.4665v-33.188c0-1.3737 0.91612-2.4665 2.0676-2.4665z" color="#000000" color-rendering="auto" dominant-baseline="auto" fill="#fff" image-rendering="auto" shape-rendering="auto" solid-color="#000000" style="font-feature-settings:normal;font-variant-alternates:normal;font-variant-caps:normal;font-variant-ligatures:normal;font-variant-numeric:normal;font-variant-position:normal;isolation:auto;mix-blend-mode:normal;shape-padding:0;text-decoration-color:#000000;text-decoration-line:none;text-decoration-style:solid;text-indent:0;text-orientation:mixed;text-transform:none;white-space:normal"/>
</svg>
